X: 3748
T: Bird's, The
R: hornpipe
M: 4/4
K: Adorian
|:e>d|c>AA>G A>cB>A|G>ED>E G2 A>B|c>AA>G A>Bc>d|e>g- g2 a>ge>d|
c>AA>G A2 B>A|G>ED>E G2 E>G|A2 A>c B>AG>B|A2 G>B A2:|
|:c>e|g2 g>a g>ec>G|c>eg>a g2 e>g|a2 a>b a>ge>g|a>ge>g a2 b>a|
g>ag>e d2 e>d|c>de>g a2 a>g|e>ge>d c>Ad>c|A2 G>B A2:|

